X: 89
T: No_19_I_Will_Go_to_the_South.krn
%%abc-version 2.0
%%abcx-abcm2ps-target-version 5.9.1 (29 Sep 2008)
%%abc-creator hum2abc beta
%%abcx-conversion-date 2020/08/10 18:54:57
%%gracespace 0 6 6
%%humdrum-veritas 4108925803
%%humdrum-veritas-data 2730775092
%%linebreak <none>
%%barnumbers 0
L: 1/8
M: 3/4
%%staves {1 2}
V: 1 clef=treble
V: 2 clef=bass
K: Bb
[V:1] z/ G/GG [I:setbarnb 1]| 
[V:2] z3 | 
[V:1] F4(3DCD ||  
[V:2] (3:2:9!accent!G,, z G,, !accent!G,, z G,, !accent!G,, z G,, ||  
[V:1] [M:2/4]B,>D DD[K:clef=bass] ||  
[V:2] [M:2/4](3!accent!G,, z G,,z2 ||  
[V:1] [M:3/4]B,4(3B,F,B, | 
[V:2] [M:3/4]z6 | 
[V:1] B,2B,4- | 
[V:2] z6 | 
[V:1] [M:2/4]B,>B, B,B, ||  
[V:2] [M:2/4]z4 ||  
[V:1] [M:3/4]D4(3DCD ||  
[V:2] [M:3/4]z6 ||  
[V:1] [M:2/4]B,>D DD ||  
[V:2] [M:2/4]z4 ||  
[V:1] [M:3/4]B,4(3B,F,B, | 
[V:2] [M:3/4]z6 | 
[V:1] B,2B,4- ||  
[V:2] z6 ||  
[V:1] [M:2/4]B,>D DD ||  
[V:2] [M:2/4]z4 ||  
[V:1] [M:3/4]B,4G,3/G,/ ||  
[V:2] [M:3/4]z6 ||  
[V:1] [M:2/4]F,2(3F,D,D, | 
[V:2] [M:2/4]z4 | 
[V:1] F,4- | 
[V:2] z4 | 
[V:1] F,>F, F,F, ||  
[V:2] z4 ||  
[V:1] [M:3/4]_G,4F,3/F,/ | 
[V:2] [M:3/4]z6 | 
[V:1] D,>F, F,F, {/F,} (3D,C,D, | 
[V:2] z6 | 
[V:1] B,,2B,,4 |]  
[V:2] z6 |]  


